resources/svg/creative-commons-nd-line.svg

<svg fill="currentColor" viewBox="0 0 24 24" xmlns="http://www.w3.org/2000/svg"><path d="M8 9H16V11H8V9ZM8 15V13H16V15H8ZM2 12C2 6.47717 6.47717 2 12 2 17.5228 2 22 6.47717 22 12 22 17.5228 17.5228 22 12 22 6.47717 22 2 17.5228 2 12ZM12 4C7.58167 4 4 7.58167 4 12 4 16.4183 7.58167 20 12 20 16.4183 20 20 16.4183 20 12 20 7.58167 16.4183 4 12 4Z"/></svg>

<svg xmlns="http://www.w3.org/2000/svg" viewBox="0 0 24 24" fill="currentColor">
    <g>
        <path fill="none" d="M0 0h24v24H0z"/>
        <path fill-rule="nonzero" d="M12 2c5.523 0 10 4.477 10 10s-4.477 10-10 10S2 17.523 2 12 6.477 2 12 2zm0 2a8 8 0 1 0 0 16 8 8 0 0 0 0-16zm4 9v2H8v-2h8zm0-4v2H8V9h8z"/>
    </g>
</svg>
